X: 31210
T: Paddy Fahey's
R: jig
M: 6/8
K: Gmajor
"G"G,B,D GBd|gfg dBG|DGA "Am7"c2 d|"Em7"BAG "D"FDC|
"G"G,B,D GBd|"C"gfg "G"dBG|DGA "Am7"cBA|"D7"GFA "G"G3:|
|:"G"gfg dBG|DGA "D7"cBA|"G"GBd "Em"g2 a|"D"f/g/af dfa|
"G"g2 a bag|"D"f/g/af dfa|"G"gfd "D"cAF||1 "D7"AGF "G"GBd:|2 "D7"AGF "G"G3||

